X: 1303
T: An Irishman In Brittany
R: reel
M: 4/4
K: Edorian
E2ed cdAB|BEBc dedc|A2(3ABc dedc|dcBA cBAG|
E2ed cdAB|BEBc dedc|A2(3ABc dedc|dcBA fede:|
edBd e2(3def|gagf e2(3def|gagf gfed|fedB A2Bd|
edBd e2ef|gagf d2(3def|gagf gfef|(3def ga gfgf|
edBd e2(3def|gagf e2(3def|gagf gfed|fedB A2Bd|
edBd e2ef|gagf d2(3fga|bage c'aba|gefe dBcA||

